icons/evolvere-blue-folders-flat-vivid-dark-fallback/apps/64/keepassx.svg

<?xml version="1.0" encoding="UTF-8" standalone="no"?>
<!-- Created with Inkscape (http://www.inkscape.org/) -->

<svg
   xmlns:dc="http://purl.org/dc/elements/1.1/"
   xmlns:cc="http://creativecommons.org/ns#"
   xmlns:rdf="http://www.w3.org/1999/02/22-rdf-syntax-ns#"
   xmlns:svg="http://www.w3.org/2000/svg"
   xmlns="http://www.w3.org/2000/svg"
   xmlns:sodipodi="http://sodipodi.sourceforge.net/DTD/sodipodi-0.dtd"
   xmlns:inkscape="http://www.inkscape.org/namespaces/inkscape"
   width="64"
   height="64"
   id="svg13094"
   version="1.1"
   inkscape:version="0.91+devel r"
   sodipodi:docname="keepassx.svg">
  <sodipodi:namedview
     id="base"
     pagecolor="#ffffff"
     bordercolor="#666666"
     borderopacity="1.0"
     inkscape:pageopacity="0"
     inkscape:pageshadow="2"
     inkscape:zoom="11.313709"
     inkscape:cx="4.8647091"
     inkscape:cy="32.649772"
     inkscape:document-units="px"
     inkscape:current-layer="svg13094"
     showgrid="true"
     inkscape:snap-bbox="true"
     inkscape:bbox-paths="true"
     inkscape:bbox-nodes="true"
     inkscape:snap-bbox-edge-midpoints="true"
     inkscape:snap-bbox-midpoints="true"
     inkscape:object-paths="true"
     inkscape:snap-intersection-paths="true"
     inkscape:object-nodes="true"
     inkscape:snap-smooth-nodes="true"
     inkscape:snap-midpoints="true"
     inkscape:snap-object-midpoints="true"
     inkscape:snap-center="true"
     showguides="true"
     inkscape:guide-bbox="true"
     inkscape:window-width="1920"
     inkscape:window-height="1023"
     inkscape:window-x="-10"
     inkscape:window-y="35"
     inkscape:window-maximized="1"
     inkscape:snap-global="true"
     fit-margin-top="0"
     fit-margin-left="0"
     fit-margin-right="0"
     fit-margin-bottom="0"
     showborder="true"
     inkscape:showpageshadow="false"
     inkscape:snap-page="true">
    <inkscape:grid
       type="xygrid"
       id="grid3075"
       empspacing="5"
       visible="true"
       enabled="true"
       snapvisiblegridlinesonly="true"
       originx="0px"
       originy="18px" />
  </sodipodi:namedview>
  <defs
     id="defs13096" />
  <metadata
     id="metadata13099">
    <rdf:RDF>
      <cc:Work
         rdf:about="">
        <dc:format>image/svg+xml</dc:format>
        <dc:type
           rdf:resource="http://purl.org/dc/dcmitype/StillImage" />
        <dc:title></dc:title>
      </cc:Work>
    </rdf:RDF>
  </metadata>
  <path
     style="color:#000000;fill:#39a424;fill-opacity:1;fill-rule:nonzero;stroke:none;stroke-width:2.28571415;marker:none;visibility:visible;display:inline;overflow:visible;enable-background:accumulate"
     d="M 0 4 L 0 34 L 0 62 L 2 64 L 32 64 L 62 64 L 64 62 L 64 34 L 64 4 L 32 4 L 0 4 z "
     id="path3056" />
  <path
     id="path3872"
     d="M 2,0 0,1 0,4 32,4 64,4 64,1 62,0 32,0 2,0 z"
     style="color:#000000;fill:#75e85e;fill-opacity:1;fill-rule:nonzero;stroke:none;stroke-width:2.28571415000000000;marker:none;visibility:visible;display:inline;overflow:visible;enable-background:accumulate"
     inkscape:connector-curvature="0" />
  <path
     d="M 64,6 62,4 64,3 z"
     id="path3028"
     style="fill:#58c942;fill-opacity:1"
     inkscape:connector-curvature="0" />
  <g
     id="g3043"
     inkscape:export-filename="folder.png"
     inkscape:export-xdpi="90"
     inkscape:export-ydpi="90"
     transform="translate(-0.625,0.082283)" />
  <g
     id="scalable"
     transform="matrix(1.0385892,0,0,1.0385892,1214.7222,1878.8121)"
     inkscape:label="#g3701"
     style="fill:#ffffff" />
  <path
     style="fill:#8bec78;fill-opacity:1;fill-rule:nonzero"
     d="M 0,3 0,6 2,4 Z"
     id="path4298"
     inkscape:connector-curvature="0"
     sodipodi:nodetypes="cccc" />
  <path
     style="font-size:medium;font-style:normal;font-variant:normal;font-weight:normal;font-stretch:normal;text-indent:0;text-align:start;text-decoration:none;line-height:normal;letter-spacing:normal;word-spacing:normal;text-transform:none;direction:ltr;block-progression:tb;writing-mode:lr-tb;text-anchor:start;baseline-shift:baseline;color:#000000;fill:#dff5d7;fill-opacity:1;fill-rule:nonzero;stroke:none;stroke-width:0.42105308;marker:none;visibility:visible;display:inline;overflow:visible;enable-background:accumulate;font-family:Sans;-inkscape-font-specification:Sans"
     d="m 41.499999,16 c -4.694337,0 -8.5,3.805663 -8.5,8.500001 0,1.173637 0.233962,2.303287 0.664063,3.320312 L 30.875,30.609375 20.515624,20.250001 16,20.250001 16,24.765624 26.359374,35.125 16,45.484376 16,50 l 4.515624,0 2.125001,-2.125 6.109374,0 0,-6.109376 L 30.875,39.640626 41.234374,50 l 4.515625,0 0,-4.515624 L 35.390624,35.125 38.179687,32.335936 C 39.196711,32.766039 40.326362,33 41.499999,33 46.194337,33 50,29.194338 50,24.500001 50,19.805663 46.194339,16 41.499999,16 z m 2.1875,3.125 c 1.76035,0 3.187501,1.427151 3.187501,3.1875 0,1.76035 -1.427149,3.187501 -3.187501,3.187501 -1.760349,0 -3.1875,-1.427151 -3.1875,-3.187501 0,-1.760349 1.42715,-3.1875 3.1875,-3.1875 z"
     id="path3855"
     inkscape:connector-curvature="0"
     sodipodi:nodetypes="ssccccccccccccccccccssssssss" />
</svg>

<svg xmlns="http://www.w3.org/2000/svg" viewBox="0 0 64 64"><g color="#000"><path d="m0 4v30 28l2 2h30 30l2-2v-28-30h-32-32" fill="#39a424"/><path d="m2 0l-2 1v3h32 32v-3l-2-1h-30-30" fill="#75e85e"/></g><path d="m64 6l-2-2 2-1z" fill="#58c942"/><path d="m0 3v3l2-2" fill="#8bec78"/><path d="m41.5 16c-4.694 0-8.5 3.806-8.5 8.5 0 1.174.234 2.303.664 3.32l-2.789 2.789-10.359-10.359h-4.516v4.516l10.359 10.359-10.359 10.359v4.516h4.516l2.125-2.125h6.109v-6.109l2.125-2.125 10.359 10.359h4.516v-4.516l-10.359-10.359 2.789-2.789c1.017.43 2.147.664 3.32.664 4.694 0 8.5-3.806 8.5-8.5 0-4.694-3.806-8.5-8.5-8.5m2.188 3.125c1.76 0 3.188 1.427 3.188 3.188 0 1.76-1.427 3.188-3.188 3.188-1.76 0-3.188-1.427-3.188-3.188 0-1.76 1.427-3.188 3.188-3.188" color="#000" fill="#dff5d7"/></svg>
